X: 17391
T: High Road To Linton, The
R: reel
M: 4/4
K: Amixolydian
|:ceef a2ae|f2fe a2ae|ceef a2ae|faec B2A2:|
|:ceeg fddf|ecce fBBd|ceeg fddf|ecac B2A2:|
|:a2a2 efa2|efae faef|a2a2 efae|faec B2A2:|
|:cdec defd|cdec BcdB|cdec def^g|afec B2A2:|

